tetrification/src/assets/images/history.svg

<svg width="487" height="386" viewBox="0 0 487 386" fill="none" xmlns="http://www.w3.org/2000/svg">
<g clip-path="url(#clip0_321_643)">
<path d="M119.066 385.253H80.8358C79.544 385.251 78.3055 384.739 77.3921 383.828C76.4787 382.917 75.9649 381.681 75.9634 380.393V301.134C75.9649 299.845 76.4787 298.61 77.3921 297.699C78.3055 296.787 79.544 296.275 80.8358 296.273H119.066C120.357 296.275 121.596 296.787 122.509 297.699C123.423 298.61 123.937 299.845 123.938 301.134V380.393C123.937 381.681 123.423 382.917 122.509 383.828C121.596 384.739 120.357 385.251 119.066 385.253Z" fill="#FBD73A"/>
<path d="M209.432 392H171.568C170.092 391.998 168.677 391.386 167.633 390.298C166.589 389.211 166.002 387.735 166 386.197V226.803C166.002 225.265 166.589 223.79 167.633 222.702C168.677 221.614 170.092 221.002 171.568 221H209.432C210.908 221.002 212.323 221.614 213.367 222.702C214.411 223.79 214.998 225.265 215 226.803V386.197C214.998 387.735 214.411 389.211 213.367 390.298C212.323 391.386 210.908 391.998 209.432 392ZM171.568 222.548C170.486 222.549 169.448 222.998 168.682 223.795C167.917 224.593 167.486 225.675 167.485 226.803V386.197C167.486 387.325 167.917 388.407 168.682 389.205C169.448 390.002 170.486 390.451 171.568 390.452H209.432C210.514 390.451 211.552 390.002 212.318 389.205C213.083 388.407 213.514 387.325 213.515 386.197V226.803C213.514 225.675 213.083 224.593 212.318 223.795C211.552 222.998 210.514 222.549 209.432 222.548H171.568Z" fill="#3F3D56"/>
<path d="M154.253 166.262C154.392 165.172 154.289 164.064 153.953 163.018C153.616 161.971 153.053 161.011 152.304 160.205C151.555 159.398 150.637 158.766 149.617 158.352C148.596 157.937 147.497 157.751 146.396 157.807L133.071 133.424L130.072 143.892L139.202 166.238C139.417 168.076 140.302 169.772 141.687 171.003C143.072 172.234 144.862 172.916 146.717 172.919C148.572 172.922 150.364 172.246 151.753 171.019C153.142 169.792 154.032 168.1 154.253 166.262Z" fill="#A0616A"/>
<path d="M51.585 262.536L59.0068 267.942L83.4402 241.956L72.4855 233.979L51.585 262.536Z" fill="#A0616A"/>
<path d="M68.29 285.24L44.9623 268.252L51.5423 259.262L65.857 269.686C68.2474 271.427 69.8467 274.044 70.3029 276.961C70.7592 279.878 70.0351 282.856 68.29 285.24Z" fill="#2F2E41"/>
<path d="M90.8531 291.148L100.043 291.148L104.415 255.789L90.8516 255.79L90.8531 291.148Z" fill="#A0616A"/>
<path d="M117.767 299.658L88.8843 299.66L88.8837 288.528L106.607 288.527C109.567 288.527 112.405 289.7 114.498 291.787C116.591 293.875 117.767 296.706 117.767 299.658Z" fill="#2F2E41"/>
<path d="M118.453 153.239C118.453 153.239 122.951 196.607 111.707 226.516L103.461 283.343H89.2187L90.7179 216.048L85.4707 156.23C85.4707 156.23 95.9652 129.312 118.453 153.239Z" fill="#2F2E41"/>
<path d="M69.7288 156.23L84.7209 207.823L55.4863 254.182L70.1036 266.52L103.461 214.553L93.7162 150.996L69.7288 156.23Z" fill="#2F2E41"/>
<path d="M107.962 40.5365C118.13 40.5365 126.373 32.3142 126.373 22.1716C126.373 12.0289 118.13 3.80664 107.962 3.80664C97.7937 3.80664 89.5508 12.0289 89.5508 22.1716C89.5508 32.3142 97.7937 40.5365 107.962 40.5365Z" fill="#A0616A"/>
<path d="M92.592 47.4358C92.592 47.4358 103.836 39.9585 116.579 56.4085L119.953 159.969C119.953 159.969 110.208 146.509 89.9684 159.221C69.729 171.932 65.2314 157.725 65.2314 157.725C65.2314 157.725 50.9889 50.8005 92.592 47.4358Z" fill="#DF654D"/>
<path d="M115.673 56.148C118.906 56.3224 121.961 57.6834 124.25 59.9693C126.538 62.2553 127.898 65.3045 128.069 68.5305L130.447 113.61L146.189 156.231L137.194 163.708L107.959 112.862L101.974 71.0697C101.699 69.1541 101.854 67.2017 102.427 65.353C103 63.5044 103.977 61.8054 105.287 60.3783C106.597 58.9513 108.208 57.8318 110.004 57.1003C111.799 56.3688 113.736 56.0435 115.673 56.148Z" fill="#DF654D"/>
<path d="M94.4337 35.948C97.4436 39.1461 103.033 37.4293 103.426 33.0602C103.456 32.721 103.454 32.3796 103.419 32.0409C103.216 30.1055 102.095 28.3485 102.364 26.3051C102.425 25.7965 102.615 25.3119 102.916 24.897C105.314 21.6933 110.945 26.33 113.208 23.4297C114.596 21.6514 112.965 18.8515 114.03 16.8638C115.436 14.2405 119.599 15.5346 122.211 14.098C125.116 12.4995 124.942 8.05314 123.03 5.34866C120.697 2.05043 116.608 0.29047 112.57 0.0368038C108.531 -0.216862 104.521 0.87208 100.751 2.33767C96.467 4.00286 92.2192 6.30422 89.5831 10.0614C86.3773 14.6305 86.0688 20.7733 87.6721 26.1161C88.6474 29.3661 91.9759 33.3364 94.4337 35.948Z" fill="#2F2E41"/>
<path d="M363.284 341.363C356.543 335.682 352.449 326.706 353.522 317.968C354.596 309.231 361.247 301.198 369.874 299.343C378.501 297.487 388.335 302.624 390.955 311.03C392.397 294.823 394.059 277.937 402.697 264.136C410.518 251.639 424.066 242.697 438.748 241.097C453.43 239.498 468.888 245.54 478.045 257.099C487.201 268.658 489.443 285.463 483.03 298.734C478.306 308.511 469.602 315.786 460.483 321.705C431.014 340.671 395.671 348.384 360.956 343.424" fill="#3F7389"/>
<path d="M463.526 245.874C451.411 255.717 440.297 266.725 430.345 278.74C414.77 297.478 402.166 318.488 392.973 341.036C392.3 342.681 394.978 343.397 395.643 341.77C410.685 305.125 434.697 272.826 465.484 247.827C466.866 246.704 464.897 244.76 463.526 245.874Z" fill="white"/>
<mask id="mask0_321_643" style="mask-type:alpha" maskUnits="userSpaceOnUse" x="18" y="-98" width="486" height="484">
<path d="M503.908 144C503.963 177.712 496.913 211.06 483.212 241.886C482.77 242.882 482.321 243.872 481.867 244.855C481.643 245.35 481.412 245.839 481.182 246.334C480.952 246.823 480.722 247.318 480.485 247.807C480.182 248.44 479.88 249.068 479.571 249.695C479.189 250.486 478.801 251.271 478.401 252.055C478.353 252.164 478.298 252.272 478.238 252.381C477.904 253.045 477.571 253.709 477.226 254.373C477.153 254.517 477.08 254.662 477.002 254.801C476.608 255.573 476.202 256.346 475.79 257.112V257.118C475.354 257.933 474.915 258.746 474.475 259.556C473.385 261.56 472.264 263.546 471.113 265.513C470.767 266.098 470.428 266.684 470.077 267.263C469.755 267.806 469.434 268.343 469.107 268.88C468.883 269.255 468.659 269.623 468.429 269.991C468.065 270.588 467.695 271.186 467.32 271.783C467.314 271.789 467.314 271.789 467.314 271.795C466.484 273.123 465.636 274.445 464.781 275.754H464.775C464.381 276.364 463.982 276.967 463.582 277.571V277.577C462.376 279.387 461.146 281.18 459.892 282.954V282.96C459.887 282.96 459.883 282.962 459.88 282.966V282.972L459.868 282.984C458.874 284.402 457.86 285.808 456.826 287.202V287.208C456.166 288.102 455.499 288.995 454.827 289.876C454.275 290.6 453.718 291.322 453.155 292.042C453.039 292.199 452.918 292.35 452.791 292.507V292.513C452.64 292.712 452.488 292.905 452.325 293.105V293.111C449.931 296.158 447.465 299.146 444.927 302.072H444.921C444.788 302.235 444.648 302.392 444.509 302.549C444.376 302.706 444.23 302.863 444.091 303.026H444.085C443.873 303.273 443.655 303.521 443.436 303.768C443.224 304.016 443 304.263 442.776 304.511V304.517C429.544 319.387 414.527 332.582 398.063 343.804C395.87 345.307 393.648 346.769 391.398 348.191C390.841 348.547 390.283 348.897 389.72 349.247C389.55 349.362 389.381 349.465 389.211 349.567C388.914 349.754 388.611 349.941 388.308 350.128C388.011 350.31 387.708 350.497 387.406 350.678C386.2 351.414 384.982 352.138 383.764 352.85C383.461 353.031 383.152 353.206 382.843 353.387C382.54 353.562 382.231 353.737 381.922 353.912C381.918 353.919 381.913 353.924 381.907 353.928C381.9 353.932 381.893 353.935 381.886 353.936L381.874 353.943L381.862 353.955H381.856C380.329 354.83 378.796 355.693 377.245 356.525C374.47 358.034 371.667 359.489 368.836 360.889C368.133 361.239 367.424 361.583 366.715 361.927C366.127 362.21 365.534 362.494 364.946 362.772C364.782 362.85 364.625 362.929 364.461 363.001C363.97 363.23 363.48 363.46 362.989 363.683C362.456 363.936 361.917 364.178 361.383 364.419C360.784 364.691 360.19 364.956 359.59 365.222C357.336 366.224 355.058 367.189 352.774 368.119C344.614 371.447 336.274 374.32 327.794 376.724C327.4 376.839 327 376.954 326.6 377.062C322.971 378.076 319.316 379.004 315.634 379.844C309.206 381.317 302.719 382.526 296.174 383.471C296.161 383.471 296.143 383.477 296.131 383.477C295.35 383.592 294.562 383.701 293.78 383.809C293.714 383.821 293.641 383.833 293.568 383.839C293.562 383.846 293.556 383.846 293.544 383.839C293.544 383.839 293.544 383.846 293.538 383.839C292.672 383.954 291.805 384.069 290.933 384.177C290.872 384.19 290.812 384.196 290.751 384.202C289.939 384.298 289.121 384.395 288.303 384.485C287.425 384.582 286.546 384.672 285.662 384.763C284.989 384.829 284.317 384.896 283.644 384.956C283.584 384.968 283.523 384.974 283.462 384.974C282.85 385.028 282.239 385.083 281.627 385.131C281.602 385.131 281.572 385.137 281.548 385.137C281.015 385.185 280.482 385.221 279.948 385.264C273.678 385.759 267.346 386.004 260.954 386C254.017 386 247.151 385.712 240.355 385.137C240.33 385.137 240.306 385.131 240.282 385.131C238.834 385.01 237.388 384.878 235.944 384.733C235.562 384.696 235.187 384.654 234.805 384.618C234.732 384.612 234.66 384.606 234.587 384.594C234.472 384.582 234.357 384.57 234.235 384.558C234.175 384.552 234.108 384.546 234.048 384.534C233.545 384.479 233.042 384.425 232.533 384.365C231.969 384.298 231.4 384.232 230.836 384.159C230.273 384.093 229.704 384.021 229.14 383.942C229.019 383.93 228.892 383.918 228.77 383.894C228.358 383.846 227.946 383.791 227.541 383.731C227.341 383.707 227.147 383.677 226.953 383.646C226.559 383.592 226.171 383.538 225.777 383.477C225.765 383.477 225.747 383.471 225.735 383.471C213.363 381.692 201.149 378.949 189.207 375.27H189.201C188.553 375.071 187.904 374.866 187.256 374.66C187.062 374.606 186.868 374.546 186.675 374.479C184.99 373.942 183.316 373.387 181.652 372.814C179.356 372.029 177.076 371.208 174.812 370.351C174.194 370.116 173.582 369.881 172.964 369.645C171.734 369.163 170.51 368.68 169.292 368.185C167.214 367.34 165.15 366.469 163.1 365.572H163.094V365.566C161.18 364.727 159.279 363.862 157.393 362.971C157.337 362.954 157.284 362.93 157.235 362.898C157.229 362.898 157.229 362.892 157.223 362.892C156.805 362.699 156.387 362.5 155.969 362.301L155.957 362.295C145.565 357.333 135.544 351.633 125.972 345.24C122.901 343.194 119.881 341.08 116.915 338.897C114.521 337.141 112.163 335.341 109.838 333.496C98.2592 324.33 87.5434 314.131 77.8238 303.026H77.8178V303.02C77.1332 302.241 76.4667 301.469 75.7881 300.684V300.678C75.6912 300.57 75.6003 300.461 75.5094 300.353C75.0793 299.852 74.6612 299.357 74.2431 298.85V298.844C73.6736 298.174 73.1162 297.502 72.571 296.828C72.4498 296.683 72.3347 296.544 72.2195 296.4H72.2135V296.394C71.7652 295.85 71.3229 295.301 70.8866 294.752C70.6625 294.481 70.4444 294.203 70.2262 293.925H70.2202V293.919C68.8994 292.26 67.6048 290.584 66.3366 288.892V288.886C65.9852 288.421 65.6398 287.957 65.3005 287.486H65.2945C63.6707 285.301 62.0894 283.091 60.5505 280.854V280.848C59.9689 280.009 59.3933 279.164 58.8238 278.313C58.2542 277.462 57.6908 276.609 57.1334 275.754H57.1273C56.5518 274.873 55.9823 273.988 55.4188 273.099C55.3885 273.051 55.3582 273.008 55.334 272.966C54.7766 272.091 54.2272 271.21 53.686 270.323C53.2498 269.617 52.8196 268.917 52.4016 268.211C52.1108 267.734 51.826 267.263 51.5473 266.78C51.4443 266.617 51.3534 266.454 51.2625 266.298C50.6203 265.205 49.9902 264.113 49.3601 263.015C48.627 261.723 47.9 260.419 47.1911 259.116C46.9003 258.579 46.6095 258.036 46.3247 257.493C46.2217 257.318 46.1308 257.143 46.0399 256.961C45.7006 256.322 45.3613 255.682 45.0281 255.036C44.6949 254.397 44.3617 253.751 44.0345 253.105C43.7073 252.459 43.3802 251.814 43.059 251.162C42.8167 250.673 42.5743 250.178 42.3381 249.689C42.3135 249.648 42.2912 249.606 42.2714 249.563C42.1624 249.333 42.0472 249.11 41.9442 248.881C41.9201 248.846 41.9016 248.807 41.8897 248.766C41.6413 248.259 41.399 247.758 41.1627 247.251C40.8476 246.6 40.5447 245.942 40.2417 245.284C40.0236 244.825 39.8176 244.361 39.6056 243.896C39.3027 243.244 39.0058 242.586 38.715 241.922C38.406 241.241 38.1091 240.553 37.8122 239.865C37.7335 239.69 37.6607 239.521 37.588 239.346C37.4486 239.032 37.3154 238.718 37.1821 238.404C36.8246 237.571 36.4732 236.726 36.1279 235.888C35.734 234.94 35.3503 233.991 34.9767 233.039C34.6192 232.152 34.2719 231.263 33.9346 230.372L33.8074 230.046V230.04C28.543 216.258 24.5598 202.025 21.9081 187.518V187.512C20.3961 179.229 19.3202 170.873 18.6849 162.479C18.6485 162.02 18.6182 161.562 18.5879 161.103C18.1881 155.424 17.9922 149.723 18.0002 144C18.0002 141.459 18.0406 138.931 18.1214 136.414C19.6923 83.8011 38.5213 33.1487 71.7288 -7.79617C73.189 -9.6006 74.6754 -11.3829 76.1881 -13.1431C120.744 -65.0796 186.99 -98 260.954 -98C347.43 -98 423.358 -52.9977 466.405 14.7804C468.647 18.2928 470.792 21.8695 472.839 25.5105C493.273 61.6806 503.975 102.497 503.908 144Z" fill="#E2D2FF"/>
</mask>
<g mask="url(#mask0_321_643)">
<path d="M300.47 392H262.24C260.75 391.999 259.321 391.407 258.267 390.356C257.213 389.305 256.62 387.879 256.618 386.392V134.409C256.62 132.922 257.213 131.496 258.267 130.445C259.321 129.394 260.75 128.802 262.24 128.801H300.47C301.961 128.802 303.39 129.394 304.444 130.445C305.498 131.496 306.09 132.922 306.092 134.409V386.392C306.09 387.879 305.498 389.305 304.444 390.356C303.39 391.407 301.961 391.999 300.47 392ZM262.24 130.296C261.147 130.297 260.099 130.731 259.326 131.502C258.553 132.273 258.119 133.318 258.117 134.409V386.392C258.119 387.483 258.553 388.528 259.326 389.299C260.099 390.07 261.147 390.504 262.24 390.505H300.47C301.563 390.504 302.611 390.07 303.384 389.299C304.157 388.528 304.592 387.483 304.593 386.392V134.409C304.592 133.318 304.157 132.273 303.384 131.502C302.611 130.731 301.563 130.297 300.47 130.296H262.24Z" fill="#3F3D56"/>
<path d="M392.019 385.627H353.789C352.497 385.625 351.259 385.113 350.345 384.202C349.432 383.29 348.918 382.055 348.917 380.767V25.5965C348.918 24.308 349.432 23.0726 350.345 22.1615C351.259 21.2504 352.497 20.7378 353.789 20.7363H392.019C393.311 20.7378 394.549 21.2504 395.462 22.1615C396.376 23.0726 396.89 24.308 396.891 25.5965V380.767C396.89 382.055 396.376 383.29 395.462 384.202C394.549 385.113 393.311 385.625 392.019 385.627Z" fill="#FBD73A"/>
</g>
</g>
<defs>
<clipPath id="clip0_321_643">
<rect width="487" height="386" fill="white"/>
</clipPath>
</defs>
</svg>

<svg width="487" height="386" fill="none" xmlns="http://www.w3.org/2000/svg"><g clip-path="url(#a)"><path d="M119.066 385.253h-38.23a4.887 4.887 0 0 1-3.444-1.425 4.86 4.86 0 0 1-1.429-3.435v-79.259a4.859 4.859 0 0 1 1.43-3.435 4.884 4.884 0 0 1 3.443-1.426h38.23a4.883 4.883 0 0 1 3.443 1.426 4.854 4.854 0 0 1 1.429 3.435v79.259a4.856 4.856 0 0 1-1.429 3.435 4.886 4.886 0 0 1-3.443 1.425Z" fill="#FBD73A"/><path d="M209.432 392h-37.864a5.463 5.463 0 0 1-3.935-1.702 5.935 5.935 0 0 1-1.633-4.101V226.803a5.937 5.937 0 0 1 1.633-4.101 5.463 5.463 0 0 1 3.935-1.702h37.864a5.463 5.463 0 0 1 3.935 1.702 5.937 5.937 0 0 1 1.633 4.101v159.394a5.935 5.935 0 0 1-1.633 4.101 5.463 5.463 0 0 1-3.935 1.702Zm-37.864-169.452a4.01 4.01 0 0 0-2.886 1.247 4.356 4.356 0 0 0-1.197 3.008v159.394a4.356 4.356 0 0 0 1.197 3.008 4.01 4.01 0 0 0 2.886 1.247h37.864a4.01 4.01 0 0 0 2.886-1.247 4.356 4.356 0 0 0 1.197-3.008V226.803a4.356 4.356 0 0 0-1.197-3.008 4.01 4.01 0 0 0-2.886-1.247h-37.864Z" fill="#3F3D56"/><path d="M154.253 166.262a7.506 7.506 0 0 0-4.636-7.91 7.536 7.536 0 0 0-3.221-.545l-13.325-24.383-2.999 10.468 9.13 22.346a7.55 7.55 0 0 0 2.485 4.765 7.591 7.591 0 0 0 10.066.016 7.55 7.55 0 0 0 2.5-4.757ZM51.585 262.536l7.422 5.406 24.433-25.986-10.954-7.977-20.901 28.557Z" fill="#A0616A"/><path d="m68.29 285.24-23.328-16.988 6.58-8.99 14.315 10.424a11.129 11.129 0 0 1 4.446 7.275 11.108 11.108 0 0 1-2.013 8.279Z" fill="#2F2E41"/><path d="M90.853 291.148h9.19l4.372-35.359-13.563.001.001 35.358Z" fill="#A0616A"/><path d="m117.767 299.658-28.883.002v-11.132l17.723-.001c2.96 0 5.798 1.173 7.891 3.26a11.118 11.118 0 0 1 3.269 7.871ZM118.453 153.239s4.498 43.368-6.746 73.277l-8.246 56.827H89.219l1.499-67.295-5.247-59.818s10.494-26.918 32.982-2.991Z" fill="#2F2E41"/><path d="m69.729 156.23 14.992 51.593-29.235 46.359 14.618 12.338 33.357-51.967-9.745-63.557-23.987 5.234Z" fill="#2F2E41"/><path d="M107.962 40.536c10.168 0 18.411-8.222 18.411-18.364 0-10.143-8.243-18.365-18.411-18.365-10.168 0-18.411 8.222-18.411 18.365 0 10.142 8.243 18.364 18.411 18.364Z" fill="#A0616A"/><path d="M92.592 47.436s11.244-7.477 23.987 8.972l3.374 103.561s-9.745-13.46-29.985-.748c-20.239 12.711-24.737-1.496-24.737-1.496S50.99 50.801 92.592 47.435Z" fill="#DF654D"/><path d="M115.673 56.148a13.14 13.14 0 0 1 8.577 3.821 13.08 13.08 0 0 1 3.819 8.562l2.378 45.079 15.742 42.621-8.995 7.477-29.235-50.846-5.985-41.792a13.046 13.046 0 0 1 .453-5.717 13.087 13.087 0 0 1 2.86-4.975 13.149 13.149 0 0 1 10.386-4.23Z" fill="#DF654D"/><path d="M94.434 35.948c3.01 3.198 8.599 1.481 8.992-2.888.03-.339.028-.68-.007-1.02-.203-1.934-1.324-3.691-1.055-5.735.061-.508.251-.993.552-1.408 2.398-3.204 8.029 1.433 10.292-1.467 1.388-1.779-.243-4.578.822-6.566 1.406-2.623 5.569-1.33 8.181-2.766 2.905-1.599 2.731-6.045.819-8.75C120.697 2.05 116.608.29 112.57.038c-4.039-.254-8.049.835-11.819 2.3-4.284 1.666-8.532 3.967-11.168 7.724-3.206 4.57-3.514 10.712-1.91 16.055.974 3.25 4.303 7.22 6.76 9.832Z" fill="#2F2E41"/><path d="M363.284 341.363c-6.741-5.681-10.835-14.657-9.762-23.395 1.074-8.737 7.725-16.77 16.352-18.625 8.627-1.856 18.461 3.281 21.081 11.687 1.442-16.207 3.104-33.093 11.742-46.894 7.821-12.497 21.369-21.439 36.051-23.039 14.682-1.599 30.14 4.443 39.297 16.002 9.156 11.559 11.398 28.364 4.985 41.635-4.724 9.777-13.428 17.052-22.547 22.971a145.814 145.814 0 0 1-99.527 21.719" fill="#3F7389"/><path d="M463.526 245.874a237.762 237.762 0 0 0-33.181 32.866 238.07 238.07 0 0 0-37.372 62.296c-.673 1.645 2.005 2.361 2.67.734a236.908 236.908 0 0 1 69.841-93.943c1.382-1.123-.587-3.067-1.958-1.953Z" fill="#fff"/><mask id="b" style="mask-type:alpha" maskUnits="userSpaceOnUse" x="18" y="-98" width="486" height="484"><path d="M503.908 144a240.028 240.028 0 0 1-22.041 100.855c-.224.495-.455.984-.685 1.479-.23.489-.46.984-.697 1.473-.303.633-.605 1.261-.914 1.888-.382.791-.77 1.576-1.17 2.36a4.127 4.127 0 0 1-.163.326c-.334.664-.667 1.328-1.012 1.992-.073.144-.146.289-.224.428-.394.772-.8 1.545-1.212 2.311v.006c-.436.815-.875 1.628-1.315 2.438a218.728 218.728 0 0 1-3.362 5.957c-.346.585-.685 1.171-1.036 1.75-.322.543-.643 1.08-.97 1.617-.224.375-.448.743-.678 1.111-.364.597-.734 1.195-1.109 1.792-.006.006-.006.006-.006.012-.83 1.328-1.678 2.65-2.533 3.959h-.006c-.394.61-.793 1.213-1.193 1.817v.006a236.488 236.488 0 0 1-3.69 5.377v.006a.014.014 0 0 0-.012.006v.006l-.012.012a193.958 193.958 0 0 1-3.042 4.218v.006a212.938 212.938 0 0 1-3.671 4.834 13.42 13.42 0 0 1-.364.465v.006c-.151.199-.303.392-.466.592v.006a239.347 239.347 0 0 1-7.398 8.961h-.006c-.133.163-.273.32-.412.477-.133.157-.279.314-.418.477h-.006c-.212.247-.43.495-.649.742-.212.248-.436.495-.66.743v.006a243.214 243.214 0 0 1-44.713 39.287 214.394 214.394 0 0 1-6.665 4.387c-.557.356-1.115.706-1.678 1.056-.17.115-.339.218-.509.32-.297.187-.6.374-.903.561-.297.182-.6.369-.902.55a224 224 0 0 1-3.642 2.172c-.303.181-.612.356-.921.537-.303.175-.612.35-.921.525a.046.046 0 0 1-.015.016.06.06 0 0 1-.021.008l-.012.007-.012.012h-.006c-1.527.875-3.06 1.738-4.611 2.57a244.171 244.171 0 0 1-12.299 6.247c-.164.078-.321.157-.485.229-.491.229-.981.459-1.472.682-.533.253-1.072.495-1.606.736a234.424 234.424 0 0 1-8.609 3.7 238.138 238.138 0 0 1-24.98 8.605 234.853 234.853 0 0 1-12.16 3.12 241.759 241.759 0 0 1-19.46 3.627c-.013 0-.031.006-.043.006-.781.115-1.569.224-2.351.332a2.208 2.208 0 0 1-.212.03c-.006.007-.012.007-.024 0 0 0 0 .007-.006 0-.866.115-1.733.23-2.605.338a1.623 1.623 0 0 1-.182.025c-.812.096-1.63.193-2.448.283-.878.097-1.757.187-2.641.278-.673.066-1.345.133-2.018.193a.928.928 0 0 1-.182.018c-.612.054-1.223.109-1.835.157-.025 0-.055.006-.079.006-.533.048-1.066.084-1.6.127-6.27.495-12.602.74-18.994.736-6.937 0-13.803-.288-20.599-.863-.025 0-.049-.006-.073-.006a260.69 260.69 0 0 1-4.338-.398c-.382-.037-.757-.079-1.139-.115a2.69 2.69 0 0 1-.218-.024l-.352-.036c-.06-.006-.127-.012-.187-.024-.503-.055-1.006-.109-1.515-.169-.564-.067-1.133-.133-1.697-.206a76.326 76.326 0 0 1-1.696-.217c-.121-.012-.248-.024-.37-.048a39.978 39.978 0 0 1-1.229-.163c-.2-.024-.394-.054-.588-.085a67.908 67.908 0 0 1-1.176-.169c-.012 0-.03-.006-.042-.006a240.187 240.187 0 0 1-36.528-8.201h-.006c-.648-.199-1.297-.404-1.945-.61a9.715 9.715 0 0 1-.581-.181 228.906 228.906 0 0 1-5.023-1.665 224.201 224.201 0 0 1-6.84-2.463c-.618-.235-1.23-.47-1.848-.706a256.09 256.09 0 0 1-9.864-4.073h-.006v-.006a221.952 221.952 0 0 1-5.701-2.595.613.613 0 0 1-.158-.073c-.006 0-.006-.006-.012-.006a118.03 118.03 0 0 1-1.254-.591l-.012-.006a240.812 240.812 0 0 1-29.985-17.055 236.358 236.358 0 0 1-9.057-6.343 234.618 234.618 0 0 1-7.077-5.401 242.885 242.885 0 0 1-32.014-30.47h-.006v-.006c-.685-.779-1.351-1.551-2.03-2.336v-.006c-.097-.108-.188-.217-.279-.325-.43-.501-.848-.996-1.266-1.503v-.006c-.57-.67-1.127-1.342-1.672-2.016a25.548 25.548 0 0 1-.352-.428h-.005v-.006c-.449-.544-.891-1.093-1.327-1.642-.225-.271-.443-.549-.66-.827h-.007v-.006a217.665 217.665 0 0 1-3.883-5.027v-.006a76.056 76.056 0 0 1-1.037-1.4h-.005a223.198 223.198 0 0 1-4.745-6.632v-.006a187.155 187.155 0 0 1-1.726-2.535c-.57-.851-1.133-1.704-1.69-2.559h-.007a230.418 230.418 0 0 1-1.708-2.655c-.03-.048-.06-.091-.085-.133a160.922 160.922 0 0 1-1.648-2.643 130.98 130.98 0 0 1-1.284-2.112c-.291-.477-.576-.948-.855-1.431-.103-.163-.194-.326-.284-.482a369.84 369.84 0 0 1-1.903-3.283 250.447 250.447 0 0 1-2.169-3.899c-.29-.537-.582-1.08-.866-1.623a8.69 8.69 0 0 1-.285-.532c-.34-.639-.679-1.279-1.012-1.925-.333-.639-.666-1.285-.993-1.931-.328-.646-.655-1.291-.976-1.943a163.62 163.62 0 0 1-.72-1.473 1.31 1.31 0 0 1-.068-.126c-.109-.23-.224-.453-.327-.682a.4.4 0 0 1-.054-.115 86.284 86.284 0 0 1-.727-1.515c-.315-.651-.618-1.309-.921-1.967-.218-.459-.424-.923-.636-1.388-.303-.652-.6-1.31-.891-1.974-.309-.681-.606-1.369-.903-2.057a19.344 19.344 0 0 1-.224-.519c-.14-.314-.273-.628-.406-.942-.357-.833-.709-1.678-1.054-2.516-.394-.948-.778-1.897-1.151-2.849-.358-.887-.705-1.776-1.042-2.667l-.128-.326v-.006a240.2 240.2 0 0 1-11.899-42.522v-.006a240.46 240.46 0 0 1-3.223-25.033c-.037-.459-.067-.917-.097-1.376-.4-5.679-.596-11.38-.588-17.103 0-2.541.04-5.069.121-7.586 1.571-52.613 20.4-103.265 53.608-144.21a235.396 235.396 0 0 1 4.46-5.347C120.743-65.08 186.99-98 260.953-98c86.476 0 162.404 45.002 205.451 112.78a223.622 223.622 0 0 1 6.434 10.73A240.087 240.087 0 0 1 503.908 144Z" fill="#E2D2FF"/></mask><g mask="url(#b)"><path d="M300.47 392h-38.23a5.633 5.633 0 0 1-3.973-1.644 5.609 5.609 0 0 1-1.649-3.964V134.409a5.609 5.609 0 0 1 1.649-3.964 5.633 5.633 0 0 1 3.973-1.644h38.23a5.634 5.634 0 0 1 3.974 1.644 5.608 5.608 0 0 1 1.648 3.964v251.983a5.608 5.608 0 0 1-1.648 3.964A5.634 5.634 0 0 1 300.47 392Zm-38.23-261.704a4.132 4.132 0 0 0-2.914 1.206 4.115 4.115 0 0 0-1.209 2.907v251.983a4.115 4.115 0 0 0 1.209 2.907 4.132 4.132 0 0 0 2.914 1.206h38.23a4.132 4.132 0 0 0 2.914-1.206 4.11 4.11 0 0 0 1.209-2.907V134.409a4.11 4.11 0 0 0-1.209-2.907 4.132 4.132 0 0 0-2.914-1.206h-38.23Z" fill="#3F3D56"/><path d="M392.019 385.627h-38.23a4.888 4.888 0 0 1-3.444-1.425 4.861 4.861 0 0 1-1.428-3.435V25.597a4.859 4.859 0 0 1 1.428-3.436 4.886 4.886 0 0 1 3.444-1.425h38.23a4.882 4.882 0 0 1 3.443 1.425 4.855 4.855 0 0 1 1.429 3.435v355.171a4.858 4.858 0 0 1-1.429 3.435 4.884 4.884 0 0 1-3.443 1.425Z" fill="#FBD73A"/></g></g><defs><clipPath id="a"><path fill="#fff" d="M0 0h487v386H0z"/></clipPath></defs></svg>
